src/circle-question-mark-filled.svg

<svg xmlns="http://www.w3.org/2000/svg" class="dibsvg-svg dibsvg-circle-question-mark-filled" viewBox="0 0 518 507">
    <path d="M259,0.329237288 C116.55,0.329237288 0.548728814,114.025847 0.548728814,253.512712 C0.548728814,392.999576 116.55,506.696186 259,506.696186 C401.45,506.696186 517.451271,392.999576 517.451271,253.512712 C517.451271,114.025847 401.45,0.329237288 259,0.329237288 L259,0.329237288 L259,0.329237288 Z M269.645339,383.890678 C265.804237,388.061017 261.304661,389.926695 256.036864,389.926695 C250.769068,389.926695 246.159746,388.061017 242.42839,383.890678 C238.697034,379.720339 236.72161,375.220763 236.72161,369.513983 C236.72161,363.807203 238.587288,359.307627 242.42839,355.137288 C246.269492,350.966949 250.769068,349.101271 256.036864,349.101271 C261.304661,349.101271 265.913983,351.405932 269.645339,355.137288 C273.486441,359.307627 275.352119,363.807203 275.352119,369.513983 C275.352119,375.220763 273.376695,379.720339 269.645339,383.890678 L269.645339,383.890678 L269.645339,383.890678 Z M310.141525,194.359746 C306.739407,201.932203 301.800847,209.175424 296.533051,215.979661 C290.826271,222.783898 284.790254,229.258898 278.315254,235.294915 C271.511017,241.769915 265.475,247.805932 260.097458,253.841949 C254.829661,259.877966 250.220339,266.023729 246.488983,272.388983 C242.647881,278.863983 240.782203,285.229237 240.782203,292.14322 C240.782203,297.08178 242.318644,300.813136 245.28178,303.886017 C248.354661,306.519915 251.317797,308.056356 253.951695,308.056356 C259.658475,308.056356 264.597034,306.190678 269.09661,302.020339 C273.596186,297.85 277.766525,293.350424 281.607627,288.411864 L298.61822,300.922881 C292.911441,308.166102 286.875424,313.433898 279.632203,317.604237 C272.388983,321.774576 266.023729,323.640254 259.877966,323.640254 C253.073729,323.640254 247.037712,322.542797 242.099153,320.238136 C237.160593,317.933475 232.990254,314.970339 229.588136,311.129237 C226.186017,306.958898 223.552119,302.788559 222.015678,297.520763 C220.15,292.582203 219.38178,286.875424 219.38178,281.27839 L219.38178,277.437288 C220.15,268.767373 222.015678,261.194915 225.85678,254.280932 C229.697881,247.476695 234.197458,241.001695 239.465254,234.965678 C244.733051,228.929661 250.439831,223.222881 256.475847,217.516102 C262.511864,211.809322 267.889407,206.102542 273.157203,200.505508 C278.095763,194.798729 282.595339,188.762712 285.997458,182.287712 C289.399576,175.812712 291.265254,169.008475 291.265254,161.10678 C291.265254,156.607203 290.167797,152.766102 288.192373,148.925 C286.326695,145.083898 283.692797,142.120763 280.619915,139.486864 C277.547034,136.852966 273.815678,134.987288 269.974576,133.450847 C265.804237,131.914407 261.963136,131.146186 258.23178,131.146186 C254.390678,131.146186 250.220339,131.914407 246.488983,133.450847 C242.647881,134.987288 239.245763,137.291949 236.282627,139.925847 C233.209746,142.559746 231.014831,145.961864 229.039407,149.802966 C227.173729,153.644068 226.405508,157.814407 226.405508,162.313983 L226.405508,164.618644 L201.383475,164.618644 C201.712712,157.814407 202.919915,151.77839 205.224576,146.07161 C207.529237,140.364831 210.931356,135.097034 215.430932,130.926695 C219.930508,126.756356 225.637288,123.354237 232.441525,121.049576 C239.245763,118.744915 247.257203,117.647458 256.366102,117.647458 C268.108898,117.647458 277.986017,119.183898 285.558475,122.147034 C293.130932,125.549153 299.166949,129.390254 303.776271,134.328814 C308.275847,139.267373 311.348729,144.535169 312.885169,151.010169 C314.750847,157.485169 315.519068,163.521186 315.519068,169.996186 C315.848305,178.44661 313.982627,186.787288 310.141525,194.359746 L310.141525,194.359746 L310.141525,194.359746 Z"/>
</svg>

<svg xmlns="http://www.w3.org/2000/svg" class="dibsvg-svg dibsvg-circle-question-mark-filled" viewBox="0 0 518 507">
    <path d="M259 .33C116.55.33.549 114.025.549 253.512S116.55 506.696 259 506.696c142.45 0 258.451-113.696 258.451-253.183S401.45.329 259 .329zm10.645 383.56c-3.84 4.171-8.34 6.037-13.608 6.037-5.268 0-9.877-1.866-13.609-6.036-3.731-4.17-5.706-8.67-5.706-14.377 0-5.707 1.865-10.206 5.706-14.377 3.841-4.17 8.341-6.036 13.609-6.036 5.268 0 9.877 2.305 13.608 6.036 3.841 4.17 5.707 8.67 5.707 14.377 0 5.707-1.975 10.206-5.707 14.377zm40.497-189.53c-3.403 7.572-8.341 14.815-13.609 21.62-5.707 6.804-11.743 13.279-18.218 19.315-6.804 6.475-12.84 12.51-18.218 18.547-5.267 6.036-9.877 12.182-13.608 18.547-3.841 6.475-5.707 12.84-5.707 19.754 0 4.939 1.537 8.67 4.5 11.743 3.073 2.634 6.036 4.17 8.67 4.17 5.706 0 10.645-1.865 15.145-6.036 4.5-4.17 8.67-8.67 12.51-13.608l17.011 12.51c-5.707 7.244-11.743 12.512-18.986 16.682-7.243 4.17-13.608 6.036-19.754 6.036-6.804 0-12.84-1.097-17.779-3.402-4.938-2.305-9.109-5.268-12.51-9.109-3.403-4.17-6.037-8.34-7.573-13.608-1.866-4.939-2.634-10.646-2.634-16.243v-3.84c.768-8.67 2.634-16.243 6.475-23.157 3.84-6.804 8.34-13.28 13.608-19.315 5.268-6.036 10.975-11.743 17.01-17.45 6.037-5.707 11.414-11.413 16.682-17.01 4.939-5.707 9.438-11.743 12.84-18.218 3.403-6.475 5.268-13.28 5.268-21.181 0-4.5-1.097-8.34-3.073-12.182-1.865-3.841-4.5-6.804-7.572-9.438-3.073-2.634-6.804-4.5-10.645-6.036-4.17-1.537-8.012-2.305-11.743-2.305-3.841 0-8.012.768-11.743 2.305-3.841 1.536-7.243 3.84-10.206 6.475-3.073 2.634-5.268 6.036-7.244 9.877-1.865 3.841-2.633 8.011-2.633 12.511v2.305h-25.023c.33-6.805 1.537-12.84 3.842-18.547 2.304-5.707 5.706-10.975 10.206-15.145 4.5-4.17 10.206-7.573 17.01-9.877 6.805-2.305 14.816-3.403 23.925-3.403 11.743 0 21.62 1.537 29.192 4.5 7.573 3.402 13.609 7.243 18.218 12.182 4.5 4.938 7.573 10.206 9.11 16.681 1.865 6.475 2.633 12.511 2.633 18.986.33 8.45-1.536 16.791-5.377 24.364z"/>
</svg>
